X: 16907
T: Haunted House, The
R: jig
M: 6/8
K: Amajor
|:A2 A BAB|cAF FEF|Ace f2 e|faf fec|
A2 A BAB|cAF FEF|Ace f/g/af|ecB AFE:|
Ace f2 e|faf fec|Acd e2 e|efe ecB|
Ace f2 e|faf fec|Ace f/g/af|ecB AFE|
Ace f2 e|faf fec|Acd e2 e|efe ecB|
A2 A BAB|cAF FEF|Ace f/g/af|ecB AFE||

